packages/core/src/svgs/eosdt.svg

<svg width="24" height="24" viewBox="0 0 24 24" fill="none" xmlns="http://www.w3.org/2000/svg">
<g clip-path="url(#clip0_31_9971)">
<path d="M0 0H24V24H0V0Z" fill="#4C9AF8"/>
<path d="M11.9668 4.28564L5.14307 8.01636V15.8052L12.2145 19.7142L14.1431 18.5159V16.5124L9.00021 13.6079V12.2528L10.5002 13.1481L12.4288 11.9266V9.89007L10.9652 9.04579L12.2145 8.29536L17.3625 11.2816L19.2859 10.0242V8.07679L11.9668 4.28564Z" fill="white"/>
<path d="M6.857 11.0565L5.57129 10.2409V11.8536L6.857 12.6507V11.0565ZM6.857 9.07261L5.57129 8.31061V9.92332L6.857 10.6793V9.07218V9.07261ZM8.57129 10.0827L7.28557 9.31818V10.9309L8.57129 11.6925V10.0827ZM10.2856 11.1177L8.99986 10.3377V11.9389L10.2856 12.7125V11.1177ZM6.857 12.9696L5.57129 12.1545V13.7668L6.857 14.5639V12.9696ZM6.857 14.824L5.57129 14.0556V15.784L6.857 16.5057V14.824ZM8.57129 15.8106L7.28557 15.0649V16.744L8.57129 17.4657V15.8106ZM10.2856 16.807L8.99986 16.0557V17.7027L10.2856 18.4305V16.807ZM11.9999 17.7855L10.7141 17.0457V18.6572L11.9999 19.3798V17.7855ZM12.4284 17.731L13.7141 16.9159V18.5282L12.4284 19.3253V17.731ZM7.28557 12.9795L8.57129 12.1643V13.7766L7.28557 14.5737V12.9795ZM10.7141 11.119L11.9999 10.3039V11.8536L10.7141 12.6507V11.119ZM10.7141 7.25118L11.9999 6.43604V8.04832L10.7141 8.84546V7.25118ZM13.7141 7.19504L12.4284 6.43604V8.04061L13.7141 8.79146V7.19504ZM15.4301 8.20732L14.1444 7.44789V9.03618L15.4301 9.80332V8.20732ZM17.1427 9.21446L15.857 8.45804V10.0489L17.1427 10.8122V9.21446ZM17.5734 9.22432L18.8591 8.44004V10.0506L17.5734 10.8135V9.22432ZM7.28557 12.5607V11.2943L8.40072 11.9243L7.28557 12.5607ZM10.2856 7.38661L9.137 8.04661L10.2856 8.72675V7.38661Z" fill="#4C9AF8"/>
</g>
<defs>
<clipPath id="clip0_31_9971">
<rect width="24" height="24" fill="white"/>
</clipPath>
</defs>
</svg>

<svg xmlns="http://www.w3.org/2000/svg" width="24" height="24" fill="none" viewBox="0 0 24 24"><g clip-path="url(#a)"><path fill="#4C9AF8" d="M0 0h24v24H0z"/><path fill="#fff" d="m11.967 4.286-6.824 3.73v7.79l7.071 3.908 1.93-1.198v-2.004L9 13.608v-1.355l1.5.895 1.929-1.221V9.89l-1.464-.844 1.25-.75 5.148 2.986 1.923-1.258V8.077z"/><path fill="#4C9AF8" d="m6.857 11.057-1.286-.816v1.613l1.286.797zm0-1.984L5.571 8.31v1.612l1.286.756zm1.714 1.01-1.285-.765v1.613l1.285.762zm1.715 1.035L9 10.338v1.6l1.286.774zM6.857 12.97l-1.286-.816v1.613l1.286.797zm0 1.854-1.286-.768v1.728l1.286.722zm1.714.987-1.285-.746v1.679l1.285.722zm1.715.996L9 16.056v1.647l1.286.727zm1.714.979-1.286-.74v1.611L12 19.38zm.428-.055 1.286-.815v1.612l-1.286.797zm-5.142-4.752 1.285-.815v1.613l-1.285.797zm3.428-1.86L12 10.304v1.55l-1.286.797zm0-3.868L12 6.436v1.612l-1.286.797zm3-.056-1.286-.759v1.605l1.286.75zm1.716 1.012-1.286-.76v1.59l1.286.766zm1.713 1.007-1.286-.756v1.59l1.286.764zm.43.01 1.286-.784v1.61l-1.286.763zM7.286 12.561v-1.267l1.115.63zm3-5.174-1.149.66 1.149.68z"/></g><defs><clipPath id="a"><path fill="#fff" d="M0 0h24v24H0z"/></clipPath></defs></svg>
